!!!SOCIAL_FUNCTION:	songs of the horse society (dream societies)
!!!PDT:	1918

Specific Region: Dakotas, Minnesota, Montana, Nebraska
!!!REG: Dakotas and Montana
!!!LING_GROUP: Siouan
!!!LANG: Tone
!!!OTL@ENG: My Horse Flies like a Bird
!!!ONM: No. 108
**kern
*Imale
*clefF4
*k[f#c#g#d#a#e#]
*M2/4
*>[A,B,B]
*>norep[A,B]
*>A
*MM84
8.f#
16f#
8.f#
16f#
=2
8.e#
16e#
12f#
[12e#
12e#]
=3||
*M3/4
4d#
4d#
8.d#
16B
=4||
*M2/4
4d#
8d#
16.e#
32e#
=5||
*M3/4
4d#
8d#
8e#
8.d#
[16B
=6
4B]
4B
8.B
16d#
=7
2.B
=8
2B
*>B
=!|:
16f#
8d#
16d#
=||
*M2/4
(16f#
8.d#)
(16f#
8.B)
=9||
*M3/4
4B
8B
8c#
8B
8G#
=10
4F#
4F#
8.F#
16E#
=11||
*M2/4
4F#
8.F#
16F#
=12||
*M3/4
4E
8E
8F#
8E
8E
=13
4D
4D
8D
8BB
=14||
*M2/4
4D
8.E
16E
=15||
*M3/4
4D
8D
8E
8D
8D
=16
4BB
2BB
=17
2.BB
=18
2BB
==:|!
*-
!!!CNT: Native American -- Sioux
!!!MRD: 1911/07//-1914///
!!!OCL: Frances Densmore
!!!YOR1: Teton Sioux Music, Bulletin 61,
!!!YOR2: Bureau of American Ethnology, Smithsonian Institution
!!!PPR: Government Printing Office
!!!PPP: Washington, D.C.
!!!PDT: 1918///
!!!ENC: Craig Stuart Sapp
!!!END: 2002/03/25/
!!!EEV: 2002/03/31/
!!!AGN: Society Song/Song of the Horse Society
!!!MPN@@SIO: Tatang'ka-ohi'tika
!!!MPN@ENG: Brave Buffalo
!!!TXO: Teton Sioux
!!!MLC: Standing Rock Reservation, South Dakota, United States of America
!!!ARL: 45.9/-100.7#
!!!catalog: Catalogue No. 573
!!!PPG: 299
!!!EFL: 108/245
!!!VTS: 1061695975
